X:1
T: John Howatt's Reel
C:H. Dunlop
R:Reel
Q: 232
K:D
M:4/4
L:1/8
|:g|a2 fd g2 ec|d2 AG FD DF|E2 FG AB cd|eA fA gf eg|
a2 fd g2 ec|d2 AG FD DF|E2 FG AB cd|eA Bc d2 A2|
de fg aA fA|gf ed ce Ae|de fg aA fA|gb a^g a2 af|
a^g af =gf ed|eA fA GF ED|F2 AF G2 BG|Ad ce d2 d:|
